X:1
L:1/4
Q:1/4=108
M:2/4
V:1
V:2 clef=bass
K:F
[V:1] D/4F/4G/4A/4 B/4A/4G/4F/4 | E/4G/4A/4B/4 c/4B/4A/4G/4 | F/4A/4B/4c/4 d/4c/4B/4A/4 | G/4B/4c/4d/4 e/4d/4c/4B/4 |
[V:2] D,/4F,/4G,/4A,/4 B,/4A,/4G,/4F,/4 | E,/4G,/4A,/4B,/4 C/4B,/4A,/4G,/4 | F,/4A,/4B,/4C/4 D/4C/4B,/4A,/4 | G,/4B,/4C/4D/4 E/4D/4C/4B,/4 |